src/assets/images/logo_br.svg

<svg width="100" height="100" viewBox="0 0 100 100" fill="none" xmlns="http://www.w3.org/2000/svg">
<path d="M17.6991 8.18555H20.5752C20.635 8.22537 20.6925 8.29174 20.7589 8.3028C24.6549 8.86696 27.7102 10.7674 29.9558 14.0108C30.1151 14.232 30.6527 14.3426 30.9867 14.2984C34.6328 13.8139 38.2611 13.128 41.9204 12.8028C52.4668 11.8648 62.9779 12.1678 73.3983 14.1745C80.2567 15.5019 86.7456 17.763 92.7036 21.4754C93.6792 22.0838 94.0067 22.774 94.031 23.8758C94.223 32.0274 93.1643 40.1602 90.8916 47.9909C85.4182 66.9179 74.1814 81.2121 56.6195 90.378C55.2921 91.0705 53.9646 91.7718 52.6527 92.4687H52.2102C51.8923 92.2443 51.5613 92.0389 51.219 91.8537C44.3606 88.6568 38.0686 84.5993 32.5952 79.3559C19.2744 66.6081 12.8142 50.6634 11.0952 32.5771C11.0599 31.709 10.6896 30.8882 10.062 30.2873C3.77878 24.0794 5.54427 11.482 15.3717 8.74528C16.1328 8.53068 16.9182 8.37139 17.6991 8.18555ZM83.8142 54.0617C83.2257 50.8183 81.1195 48.367 78.3761 46.3581C75.5907 44.3183 72.4513 43.4621 68.6991 43.8736C70.4381 42.5462 72.6283 41.9422 74.5598 42.3117C79.1726 43.1966 83.0885 45.2763 85.8606 49.2055C86.0287 49.4122 86.2082 49.6094 86.3983 49.7962C88.7544 42.4355 90.0133 35.0263 90.0465 27.4156C90.0575 24.5594 90.0465 24.5617 87.5553 23.2563C80.0487 19.3316 71.9381 17.6258 63.5996 16.8404C54.9342 15.9908 46.2002 16.1304 37.5664 17.2563C35.6527 17.513 33.75 17.8692 31.8429 18.1789C33.5752 28.1811 25.3673 35.9201 15.2721 33.4621C15.2493 33.6403 15.2405 33.8201 15.2456 33.9997C15.8417 39.8351 17.1348 45.5781 19.0974 51.1059C19.1889 51.2984 19.3188 51.4703 19.4789 51.611C19.639 51.7517 19.8261 51.8584 20.0288 51.9245C22.4182 52.6502 24.7898 53.5329 27.239 53.9488C34.0708 55.0882 40.6571 56.9864 46.8297 60.1767C52.8983 63.3227 58.4668 67.1258 62.8651 72.4555C64.5236 74.4055 65.7484 76.6861 66.458 79.1457C73.153 73.706 78.6133 66.9033 82.4757 59.19C82.6173 58.9068 82.4757 58.3293 82.2545 58.044C81.4204 56.951 80.1637 56.8072 78.896 56.659C77.4049 56.4842 75.8806 56.3559 74.4513 55.9311C72.1394 55.2431 70.3053 53.8094 68.9536 51.7431L69.5044 51.1147C71.073 51.732 72.4403 52.4997 73.9027 52.7895C75.7677 53.159 77.7146 53.0904 79.6151 53.3117C81.0177 53.482 82.4005 53.805 83.8142 54.0617ZM22.7036 59.3094C22.7699 59.539 22.8482 59.765 22.9381 59.9864C29.4602 72.4643 39.219 81.5705 51.8518 87.6612C52.0448 87.7413 52.2524 87.7799 52.4613 87.7746C52.6701 87.7692 52.8755 87.72 53.0642 87.6302C56.8547 85.378 60.6224 83.0919 64.3673 80.7718C64.6615 80.5882 64.8783 79.9842 64.8385 79.6081C64.6438 77.7718 63.5907 76.3294 62.4624 74.9621C60.3562 72.4001 57.75 70.4134 54.9403 68.6966C46.4757 63.524 37.2412 60.6081 27.4182 59.5617C25.9049 59.3891 24.3717 59.3891 22.7036 59.3094ZM19.0686 29.8847C24.0376 29.9289 28.0111 26.0948 28.0797 21.1944C28.0958 20.021 27.8789 18.8561 27.4417 17.7671C27.0044 16.6781 26.3555 15.6867 25.5324 14.8502C24.7093 14.0138 23.7285 13.3489 22.6467 12.8942C21.5649 12.4394 20.4036 12.2038 19.2301 12.201C14.073 12.1878 10.4314 15.7829 10.3982 20.9333C10.3496 26.232 13.854 29.8493 19.0686 29.8935V29.8847Z" fill="#E5E5E5"/>
<path d="M43.3628 52.8766H34.0707C34.0486 52.4341 34.0066 51.9916 34.0066 51.5602C34.0066 43.9201 34.0066 36.28 34.0066 28.6399C34.0066 28.1642 34.0486 27.6886 34.0707 27.2129H42.4778C42.8274 27.3036 43.1725 27.4076 43.5243 27.4828C46.2964 28.0824 47.8185 29.6797 48.188 32.3855C48.6548 35.8058 47.7588 37.766 45.1239 39.089C47.4358 40.3678 47.7787 40.6554 48.3362 41.7439C50.6238 46.2793 48.3716 51.4231 43.5309 52.7328C43.4668 52.7593 43.4181 52.8301 43.3628 52.8766ZM39.2566 41.1731V49.2107C40.8053 49.1067 42.5309 49.5934 43.4225 47.9629C43.9136 47.1087 44.1676 46.1389 44.1583 45.1537C44.1489 44.1684 43.8766 43.2036 43.3694 42.3589C42.4623 40.8036 40.7876 41.1509 39.2566 41.1731ZM39.2035 37.6111C40.7323 37.5492 42.396 37.9916 43.2323 36.3943C43.9845 34.9563 44.0575 33.3279 43.1371 31.8655C42.5177 30.8788 40.7345 30.5182 39.2035 30.954V37.6111Z" fill="#E5E5E5"/>
<path d="M57.0797 52.8766H51.9912C51.969 52.4341 51.927 51.9916 51.927 51.5602C51.927 43.9201 51.927 36.28 51.927 28.6399C51.927 28.1642 51.969 27.6886 51.9912 27.2129H60.6195C60.9712 27.2992 61.3208 27.3965 61.677 27.4673C64.062 27.9297 65.8628 29.0824 66.469 31.5934C66.9491 33.5691 66.9646 35.5912 66.2677 37.4762C65.896 38.4784 65.0398 39.3501 64.2478 40.131C63.8341 40.5359 63.6969 40.7593 63.8673 41.3036C64.3385 42.8124 64.7522 44.3412 65.1681 45.8678C65.8009 48.204 66.4137 50.547 67.0354 52.8877H61.7257C61.677 52.5647 61.6549 52.235 61.5752 51.9208C60.8112 48.8589 60.0413 45.7992 59.2655 42.7416C58.8828 41.2195 58.7987 41.1686 57.0797 41.5691V52.8766ZM57.1438 38.2748C58.7743 38.2151 60.5288 38.662 61.3872 36.9474C62.2279 35.2704 62.2721 33.3788 61.2212 31.7726C60.2655 30.308 58.6217 30.8368 57.1438 30.7881V38.2748Z" fill="#E5E5E5"/>
</svg>

<svg width="100" height="100" fill="none" xmlns="http://www.w3.org/2000/svg"><path d="M17.7 8.186h2.875c.06.04.117.106.184.117 3.896.564 6.951 2.464 9.197 5.708.16.221.697.332 1.03.287 3.647-.484 7.275-1.17 10.934-1.495 10.547-.938 21.058-.635 31.478 1.371 6.859 1.328 13.348 3.589 19.306 7.301.975.609 1.303 1.299 1.327 2.4a79.778 79.778 0 01-3.14 24.116c-5.473 18.927-16.71 33.221-34.272 42.387a602.745 602.745 0 00-3.966 2.09h-.443a9.832 9.832 0 00-.991-.614c-6.858-3.197-13.15-7.255-18.624-12.498-13.32-12.748-19.78-28.693-21.5-46.779a3.36 3.36 0 00-1.033-2.29c-6.283-6.208-4.518-18.805 5.31-21.542.76-.214 1.546-.374 2.327-.56zm66.114 45.876c-.588-3.244-2.694-5.695-5.438-7.704-2.785-2.04-5.925-2.896-9.677-2.484 1.74-1.328 3.93-1.932 5.86-1.562 4.614.885 8.53 2.964 11.302 6.894.168.206.347.403.537.59 2.356-7.36 3.615-14.77 3.648-22.38.011-2.857 0-2.854-2.49-4.16-7.507-3.924-15.618-5.63-23.956-6.416-8.666-.85-17.4-.71-26.034.416-1.913.257-3.816.613-5.723.923 1.732 10.002-6.476 17.741-16.57 15.283a3.462 3.462 0 00-.027.538 73.43 73.43 0 003.851 17.106 1.57 1.57 0 00.932.819c2.39.725 4.76 1.608 7.21 2.024 6.832 1.14 13.418 3.037 19.59 6.228 6.07 3.146 11.638 6.949 16.036 12.279a18.049 18.049 0 013.593 6.69A60.773 60.773 0 0082.476 59.19c.141-.283 0-.86-.222-1.146-.834-1.093-2.09-1.237-3.358-1.385-1.491-.175-3.015-.303-4.445-.728-2.312-.688-4.146-2.122-5.497-4.188l.55-.628c1.569.617 2.936 1.385 4.399 1.674 1.865.37 3.812.301 5.712.523 1.403.17 2.785.493 4.2.75zm-61.11 5.247c.066.23.144.456.234.677C29.46 72.464 39.22 81.57 51.852 87.661a1.491 1.491 0 001.212-.03 713.145 713.145 0 0011.303-6.86c.294-.183.511-.787.471-1.163-.194-1.836-1.247-3.279-2.376-4.646-2.106-2.562-4.712-4.549-7.522-6.265-8.464-5.173-17.699-8.089-27.522-9.135-1.513-.173-3.046-.173-4.714-.253zm-3.635-29.424c4.969.044 8.942-3.79 9.01-8.69A8.872 8.872 0 0019.23 12.2c-5.157-.013-8.799 3.582-8.832 8.732-.048 5.299 3.456 8.916 8.67 8.96v-.008z" fill="#E5E5E5"/><path d="M43.363 52.877H34.07c-.022-.443-.064-.885-.064-1.317V28.64c0-.476.042-.951.064-1.427h8.407c.35.09.694.195 1.046.27 2.772.6 4.294 2.197 4.664 4.902.467 3.42-.43 5.381-3.064 6.704 2.312 1.279 2.655 1.566 3.212 2.655 2.288 4.535.036 9.68-4.805 10.989-.064.026-.113.097-.168.144zm-4.106-11.704v8.038c1.548-.104 3.274.382 4.166-1.248a5.531 5.531 0 00-.054-5.604c-.907-1.555-2.581-1.208-4.112-1.186zm-.053-3.562c1.528-.062 3.192.38 4.028-1.217.752-1.438.825-3.066-.095-4.528-.62-.987-2.403-1.348-3.934-.912v6.657zM57.08 52.877H51.99c-.022-.443-.064-.885-.064-1.317V28.64c0-.476.042-.951.064-1.427h8.629c.351.086.7.183 1.057.254 2.385.463 4.186 1.615 4.792 4.126.48 1.976.496 3.998-.201 5.883-.372 1.002-1.228 1.874-2.02 2.655-.414.405-.551.628-.38 1.173.47 1.508.884 3.037 1.3 4.564.633 2.336 1.246 4.679 1.867 7.02h-5.31c-.048-.323-.07-.653-.15-.967-.764-3.062-1.534-6.122-2.31-9.18-.382-1.522-.466-1.572-2.185-1.172v11.308zm.064-14.602c1.63-.06 3.385.387 4.243-1.328.84-1.677.885-3.568-.166-5.174-.955-1.465-2.6-.936-4.077-.985v7.487z" fill="#E5E5E5"/></svg>
